icons/upload-cloud-line.svg

<svg viewBox="0 0 24 24" fill="currentColor" xmlns="http://www.w3.org/2000/svg"><path d="M1 14.5C1 12.1716 2.22429 10.1291 4.06426 8.9812C4.56469 5.044 7.92686 2 12 2C16.0731 2 19.4353 5.044 19.9357 8.9812C21.7757 10.1291 23 12.1716 23 14.5C23 17.9216 20.3562 20.7257 17 20.9811L7 21C3.64378 20.7257 1 17.9216 1 14.5ZM16.8483 18.9868C19.1817 18.8093 21 16.8561 21 14.5C21 12.927 20.1884 11.4962 18.8771 10.6781L18.0714 10.1754L17.9517 9.23338C17.5735 6.25803 15.0288 4 12 4C8.97116 4 6.42647 6.25803 6.0483 9.23338L5.92856 10.1754L5.12288 10.6781C3.81156 11.4962 3 12.927 3 14.5C3 16.8561 4.81833 18.8093 7.1517 18.9868L7.325 19H16.675L16.8483 18.9868ZM13 13V17H11V13H8L12 8L16 13H13Z"/></svg>

<svg xmlns="http://www.w3.org/2000/svg" viewBox="0 0 24 24">
    <g>
        <path fill="none" d="M0 0h24v24H0z"/>
        <path d="M1 14.5a6.496 6.496 0 0 1 3.064-5.519 8.001 8.001 0 0 1 15.872 0 6.5 6.5 0 0 1-2.936 12L7 21c-3.356-.274-6-3.078-6-6.5zm15.848 4.487a4.5 4.5 0 0 0 2.03-8.309l-.807-.503-.12-.942a6.001 6.001 0 0 0-11.903 0l-.12.942-.805.503a4.5 4.5 0 0 0 2.029 8.309l.173.013h9.35l.173-.013zM13 13v4h-2v-4H8l4-5 4 5h-3z"/>
    </g>
</svg>
